X: 17564
T: Hjogravylta
R: reel
M: 4/4
K: Dmajor
d2AG FGE2|:S DEFG ABAF|ABAF GFE2|
DEFG ABAF|1 d2AG FGE2:|2 d2AG FGA2||
d3e fdf2|ecef g2fe|defg abag fga2|
d3e fdf2|ecef g2fg|afge fdec|d2AG FGE2||

